icons/library.svg

<svg width="14" height="14" viewBox="0 0 14 14" fill="none"
    xmlns="http://www.w3.org/2000/svg">
    <path d="M7 2.5L3 5.5H11L7 2.5Z" stroke="red" stroke-linecap="round" stroke-linejoin="round"/>
    <path d="M3.5 7H4M4.5 7H4M4 7L4.01447 10M4.01447 10H3.5M4.01447 10H4.5" stroke="green" stroke-linecap="round"/>
    <path d="M9.5 7H10M10.5 7H10M10 7L10.0145 10M10.0145 10H9.5M10.0145 10H10.5" stroke="green" stroke-linecap="round"/>
    <path d="M6.5 7H7M7.5 7H7M7 7L7.01447 10M7.01447 10H6.5M7.01447 10H7.5" stroke="green" stroke-linecap="round"/>
    <path d="M11 11.5L3 11.5" stroke="red" stroke-linecap="round"/>
</svg>

<svg xmlns="http://www.w3.org/2000/svg" width="14" height="14" fill="none" viewBox="0 0 14 14"><path stroke="red" stroke-linecap="round" stroke-linejoin="round" d="m7 2.5-4 3h8z"/><path stroke="green" stroke-linecap="round" d="M3.5 7H4m.5 0H4m0 0 .014 3m0 0H3.5m.514 0H4.5m5-3h.5m.5 0H10m0 0 .014 3m0 0H9.5m.515 0h.485m-4-3H7m.5 0H7m0 0 .014 3m0 0H6.5m.514 0H7.5"/><path stroke="red" stroke-linecap="round" d="M11 11.5H3"/></svg>
